X:47
T:Finn Jenta
C:traditional Norwegian
M:3/4
K:F
L:1/8
D2 |: "Gm" G2 G^F GA | B2 BA Bc | "Bb" d2 d^c de |
"Dm" f2 fe gf | "Gm" d2 dc Ac | B2 A2 G2 | "D7" ^FG A2 F2 | D4 D2 |
"Gm" G2 G^F GA | B2 BA Bc | "Bb" d2 d^c de | "Dm" f2 fe gf |
"Gm" d2 dc Ac | B2 A2 G2 | "D7" ^FG A2 F2 |1 "Gm" G4 F2 :|2 "Gm" G3 A Bc ||
"Bb" d2 c2 B2 | "F" A3 F AB | "D7" c2 B2 A2 | "Gm" G3 D GA | B2 A2 ^F2 |
"D7" D^F A2 F2 | "Gm" G2 d2 "A" ^c2 | "D7" d3 A Bc | "Bb" d2 c2 B2 |
"F" A3 F AB | "D7"c2 B2 A2 | "Gm" G2 D GA | B2 A2 ^F2 |
"D7" D^F A2 F2 |1 "Gm" G2 G3 "D7" ^F | "Gm" GA BA Bc :|2 "Gm" G2 G2 "D7" ^F2 | "Gm" G4 ||

